icons/synergist_insecticide_bioassays_fill.svg

<svg width="48" height="48" viewBox="0 0 48 48" fill="none" xmlns="http://www.w3.org/2000/svg">
<path d="M14 26C16.2091 26 18 27.7909 18 30C18 30.7418 17.7981 31.4365 17.4462 32.032L11.968 26.5538C12.5635 26.2019 13.2582 26 14 26Z" fill="black"/>
<path d="M10.5538 27.9681C10.2019 28.5636 10 29.2582 10 30C10 32.2091 11.7909 34 14 34C14.7418 34 15.4364 33.7981 16.0319 33.4462L10.5538 27.9681Z" fill="black"/>
<path fill-rule="evenodd" clip-rule="evenodd" d="M11 6C10.4477 6 10 6.44772 10 7V10.3333C10 10.8856 10.4477 11.3333 11 11.3333H13V13H9.5C8.67157 13 8 13.6716 8 14.5C8 15.3223 8.66172 15.9901 9.48172 15.9999C9.47011 16.0542 9.45304 16.1073 9.43066 16.1585L6.16769 23.6167C6.05709 23.8695 6 24.1424 6 24.4184V41C6 41.5523 6.44772 42 7 42H21C21.5523 42 22 41.5523 22 41V24.4184C22 24.1424 21.9429 23.8695 21.8323 23.6167L18.5693 16.1585C18.547 16.1073 18.5299 16.0542 18.5183 15.9999C19.3383 15.9901 20 15.3223 20 14.5C20 13.6716 19.3284 13 18.5 13H15V11.3333H17C17.5523 11.3333 18 10.8856 18 10.3333V7C18 6.44772 17.5523 6 17 6H11ZM14 10C14.7364 10 15.3333 9.40305 15.3333 8.66667C15.3333 7.93029 14.7364 7.33333 14 7.33333C13.2636 7.33333 12.6667 7.93029 12.6667 8.66667C12.6667 9.40305 13.2636 10 14 10ZM14 24C17.3137 24 20 26.6863 20 30C20 33.3137 17.3137 36 14 36C10.6863 36 8 33.3137 8 30C8 26.6863 10.6863 24 14 24Z" fill="black"/>
<path d="M42 40C42 41.1046 41.375 42 37 42C33.5054 42 32.4034 41.4287 32.1014 40.6359C31.7375 41.1525 31.0586 41.5849 30.2254 41.7666C29.516 41.9214 28.8326 41.8643 28.3082 41.6475C27.4892 42.0951 26.4326 42.1635 25.5304 41.5794C24.5283 40.9306 24 39.6674 24 38C24 37.4477 24.4477 37 25 37C25.5523 37 26 37.4477 26 38C26 39.2996 26.4035 39.7621 26.6173 39.9005C26.8317 40.0393 27.14 40.0435 27.4306 39.8422C27.4439 39.833 27.4573 39.8241 27.4709 39.8156C27.7708 39.1893 28.5302 38.6404 29.4975 38.4294C30.8303 38.1387 32.0712 38.5956 32.3386 39.4546C32.5623 39.2491 32.8891 39.0321 33.2964 38.8303L31.2298 36.4375H30.0836C29.6324 36.4375 29.2162 36.1943 28.9946 35.8012L27.1288 32.491C26.8577 32.0099 27.0279 31.4 27.509 31.1288C27.9901 30.8576 28.6 31.0278 28.8711 31.509L30.5218 34.4375H31.4587C31.8946 34.4375 32.309 34.6271 32.5939 34.957L34.8193 37.5339C34.9896 37.731 35.0692 37.9756 35.0621 38.2169C35.203 38.1851 35.3471 38.1563 35.4943 38.1307L35.6276 35.9089L34.1926 35.0805C33.5011 34.6812 33.2436 33.8101 33.6069 33.099L34.8957 30.5763C35.147 30.0844 35.7494 29.8894 36.2412 30.1407C36.733 30.392 36.928 30.9944 36.6767 31.4862L35.604 33.5859L36.8952 34.3314C37.3873 34.6155 37.6766 35.1532 37.6425 35.7203L37.5048 38.0148C37.5656 38.0183 37.6261 38.0225 37.6862 38.0272L39.5391 36.3157L38.5958 34.7288C38.3673 34.3444 38.3616 33.8672 38.5808 33.4773L40.0034 30.9481C40.2742 30.4668 40.8839 30.296 41.3652 30.5668C41.8466 30.8375 42.0173 31.4472 41.7466 31.9286L40.5367 34.0798L41.4652 35.6419C41.8271 36.2507 41.7138 37.0296 41.1936 37.5102L40.0644 38.5532C41.2421 38.9985 42 39.6121 42 40Z" fill="black"/>
<path fill-rule="evenodd" clip-rule="evenodd" d="M41 19.8001C41.6156 20.1377 42 20.7847 42 21.4891V25.9999H32V21.4891C32 20.7847 32.3844 20.1377 33 19.8001V12.1999C32.3844 11.8623 32 11.2153 32 10.5109V6H42V10.5109C42 11.2153 41.6156 11.8623 41 12.1999V19.8001ZM35 12.1558C35 11.4513 34.6156 10.8043 34 10.4667V9.77143H40V10.4667C39.3844 10.8043 39 11.4513 39 12.1558V19.8442C39 20.5487 39.3844 21.1957 40 21.5333V22.2285H34V21.5333C34.6156 21.1957 35 20.5487 35 19.8442V12.1558Z" fill="black"/>
</svg>

<svg
  xmlns="http://www.w3.org/2000/svg"
  width="24"
  height="24"
  viewBox="0 0 24 24"
  fill="none"
  stroke="currentColor"
  stroke-width="2"
  stroke-linecap="round"
  stroke-linejoin="round"
>
  <path d="M14 26a4 4 0 0 1 3.446 6.032l-5.478-5.478A4 4 0 0 1 14 26" />
  <path d="M10.554 27.968a4 4 0 0 0 5.478 5.478z" />
  <path
    fill-rule="evenodd"
    d="M11 6a1 1 0 0 0-1 1v3.333a1 1 0 0 0 1 1h2V13H9.5a1.5 1.5 0 0 0-.018 3 1 1 0 0 1-.051.159l-3.263 7.458a2 2 0 0 0-.168.801V41a1 1 0 0 0 1 1h14a1 1 0 0 0 1-1V24.418a2 2 0 0 0-.168-.801l-3.263-7.459a1 1 0 0 1-.05-.158 1.5 1.5 0 0 0-.019-3H15v-1.667h2a1 1 0 0 0 1-1V7a1 1 0 0 0-1-1zm3 4a1.333 1.333 0 1 0 0-2.667A1.333 1.333 0 0 0 14 10m0 14a6 6 0 1 1 0 12 6 6 0 0 1 0-12"
    clip-rule="evenodd"
  />
  <path d="M42 40c0 1.105-.625 2-5 2-3.495 0-4.597-.571-4.899-1.364-.363.517-1.042.949-1.876 1.13-.709.155-1.392.098-1.917-.118-.819.447-1.875.515-2.778-.069C24.528 40.931 24 39.667 24 38a1 1 0 1 1 2 0c0 1.3.404 1.762.617 1.9.215.14.523.144.814-.058l.04-.026c.3-.627 1.06-1.176 2.026-1.387 1.333-.29 2.574.167 2.842 1.026.223-.206.55-.423.957-.625l-2.066-2.392h-1.146a1.25 1.25 0 0 1-1.09-.637l-1.865-3.31a1 1 0 0 1 1.742-.982l1.65 2.928h.938c.436 0 .85.19 1.135.52l2.225 2.577c.17.197.25.442.243.683q.211-.047.432-.086l.134-2.222-1.435-.828a1.5 1.5 0 0 1-.586-1.982l1.289-2.523a1 1 0 1 1 1.78.91l-1.072 2.1 1.291.745a1.5 1.5 0 0 1 .747 1.39l-.137 2.294.181.012 1.853-1.711-.943-1.587a1.25 1.25 0 0 1-.015-1.252l1.422-2.529a1 1 0 0 1 1.744.98l-1.21 2.152.928 1.562a1.5 1.5 0 0 1-.271 1.868l-1.13 1.043C41.242 39 42 39.613 42 40" />
  <path
    fill-rule="evenodd"
    d="M41 19.8c.616.338 1 .985 1 1.69V26H32v-4.51c0-.705.384-1.352 1-1.69v-7.6c-.616-.338-1-.985-1-1.69V6h10v4.51c0 .705-.384 1.352-1 1.69zm-6-7.644c0-.705-.384-1.352-1-1.69v-.695h6v.696c-.616.337-1 .984-1 1.689v7.688c0 .705.384 1.352 1 1.69v.695h-6v-.696c.616-.337 1-.984 1-1.689z"
    clip-rule="evenodd"
  />
</svg>
